X:1
T:Music Alone Shall Live
M:3/4
L:1/4
K:C
 E E E| E E E| D3/2 E/2 F| G, A, B,| C3| G G G| F3/2 G/2 A| F F F|\
 E3/2 F/2 G| E E E| D3/2 E/2 F| G, A, B,| C3|
